X: 1
T: Johnny Gormans
M: 4/4
L: 1/8
D: Pathway to the Well, Matt Molloy, John Carty, Arty McGlynn
K: G
D3E ~G3A|B2 {d}BA ~B3c|d2 ge dB{d}BA|GE{G}ED EFGE|
DB,DE ~G3A|B2 {d}BA ~B3c|d2 ge dBAB|1 G2 g2 g2 GE:|2 G2 g2 g3a||
bagb a2 fa|gfeg dcBc|d2 ge dBAB|GE{G}ED Eega|
bagb a2 fa|gfeg dcBc|d2 ge dBAB|1 G2 g2 g3a:|2 [G6G,6] GE||
